X: 35355
T: Rosie Finn's Favourite
R: slide
M: 12/8
K: Dmajor
|:A|D2 F A2 d f2 d A2 F|GFG edc dcB AFE|
D2 F A2 d f2 d A2 F|GBG e>dc d3 d2:|
|:A|d2 f g2 f e2 B BdB|cec ABc dcB AFA|
d2 f g2 f e2 B BdB|cec ABc d3 d2:|

